SVG_Azure_Grouped/Application/Event Grid Subscription.svg

<?xml version="1.0" encoding="UTF-8" standalone="no"?>
<!-- Generated by Microsoft Visio, SVG Export Event Grid Subscription.svg Page-1 -->

<svg
   xmlns:dc="http://purl.org/dc/elements/1.1/"
   xmlns:cc="http://creativecommons.org/ns#"
   xmlns:rdf="http://www.w3.org/1999/02/22-rdf-syntax-ns#"
   xmlns:svg="http://www.w3.org/2000/svg"
   xmlns="http://www.w3.org/2000/svg"
   xmlns:xlink="http://www.w3.org/1999/xlink"
   xmlns:sodipodi="http://sodipodi.sourceforge.net/DTD/sodipodi-0.dtd"
   xmlns:inkscape="http://www.inkscape.org/namespaces/inkscape"
   width="0.78753227in"
   height="0.70868081in"
   viewBox="0 0 56.702214 51.025002"
   xml:space="preserve"
   class="st8"
   version="1.1"
   id="svg127"
   sodipodi:docname="Event Grid Subscription.svg"
   style="font-size:12px;overflow:visible;color-interpolation-filters:sRGB;fill:none;fill-rule:evenodd;stroke-linecap:square;stroke-miterlimit:3"
   inkscape:version="0.92.5 (2060ec1f9f, 2020-04-08)"><metadata
   id="metadata131"><rdf:RDF><cc:Work
       rdf:about=""><dc:format>image/svg+xml</dc:format><dc:type
         rdf:resource="http://purl.org/dc/dcmitype/StillImage" /></cc:Work></rdf:RDF></metadata><sodipodi:namedview
   pagecolor="#ffffff"
   bordercolor="#666666"
   borderopacity="1"
   objecttolerance="10"
   gridtolerance="10"
   guidetolerance="10"
   inkscape:pageopacity="0"
   inkscape:pageshadow="2"
   inkscape:window-width="640"
   inkscape:window-height="480"
   id="namedview129"
   showgrid="false"
   inkscape:zoom="1.4869072"
   inkscape:cx="37.79867"
   inkscape:cy="34.006413"
   inkscape:window-x="0"
   inkscape:window-y="0"
   inkscape:window-maximized="0"
   inkscape:current-layer="svg127" />
	<style
   type="text/css"
   id="style2">
	<![CDATA[
		.st1 {fill:#32bedd;stroke:none;stroke-linecap:butt;stroke-width:34}
		.st2 {fill:#ffffff;stroke:none;stroke-linecap:butt;stroke-width:34}
		.st3 {fill:#50e6ff;stroke:none;stroke-linecap:butt;stroke-width:34}
		.st4 {fill:url(#grad0-18);stroke:none;stroke-linecap:butt;stroke-width:34}
		.st5 {fill:#999999;stroke:none;stroke-linecap:butt;stroke-width:34}
		.st6 {fill:#999999;fill-opacity:0.5;stroke:none;stroke-linecap:butt;stroke-width:34}
		.st7 {fill:#949494;stroke:none;stroke-linecap:butt;stroke-width:34}
		.st8 {fill:none;fill-rule:evenodd;font-size:12px;overflow:visible;stroke-linecap:square;stroke-miterlimit:3}
	]]>
	</style>

	<defs
   id="Patterns_And_Gradients">
		<linearGradient
   id="grad0-18"
   x1="0"
   y1="0"
   x2="1"
   y2="0"
   gradientTransform="rotate(90,0.5,0.5)">
			<stop
   offset="0"
   stop-color="#c69aeb"
   stop-opacity="1"
   id="stop4" />
			<stop
   offset="1"
   stop-color="#6f4bb2"
   stop-opacity="1"
   id="stop6" />
		</linearGradient>
	<linearGradient
   inkscape:collect="always"
   xlink:href="#grad0-18"
   id="linearGradient4641"
   gradientTransform="scale(0.99475684,1.0052708)"
   x1="0"
   y1="111.37533"
   x2="7.0401528"
   y2="111.37533"
   gradientUnits="userSpaceOnUse" /><linearGradient
   inkscape:collect="always"
   xlink:href="#grad0-18"
   id="linearGradient4643"
   gradientTransform="scale(0.99475684,1.0052708)"
   x1="0"
   y1="111.37533"
   x2="7.0401528"
   y2="111.37533"
   gradientUnits="userSpaceOnUse" /></defs>
	<g
   id="g125"
   transform="translate(-34.000106,-33.9993)">
		<title
   id="title10">Page-1</title>
		<g
   id="group14116-1"
   transform="translate(34.0052,-34.0157)">
			<title
   id="title12">Event Grid Subscription.14116</title>
			<g
   id="group14117-2">
				<title
   id="title14">Icon-integration-221</title>
				<g
   id="shape14118-3"
   transform="translate(8.50394,-14.1545)">
					<title
   id="title16">Sheet.14118</title>
					<path
   d="M 32.18,104.82 V 102.8 H 17.11 l -7.07,7.11 H 4.84 L 16.91,97.57 h 8.23 V 95.65 H 16.07 L 2,109.91 H 0 v 2.02 h 6.04 l 7.13,7.11 h 17.01 v -2.02 H 13.91 l -5.04,-5.09 h 12.24 v -2.02 h -8.2 l 5,-5.09 z"
   class="st1"
   id="path18"
   inkscape:connector-curvature="0"
   style="fill:#32bedd;stroke:none;stroke-width:34;stroke-linecap:butt" />
				</g>
				<g
   id="shape14119-5"
   transform="translate(28.7133,-19.3445)">
					<title
   id="title21">Sheet.14119</title>
					<ellipse
   cx="2.90134"
   cy="116.107"
   rx="2.90134"
   ry="2.9319999"
   class="st2"
   id="ellipse23"
   style="fill:#ffffff;stroke:none;stroke-width:34;stroke-linecap:butt" />
				</g>
				<g
   id="shape14120-7"
   transform="translate(31.748,-33.5664)">
					<title
   id="title26">Sheet.14120</title>
					<ellipse
   cx="2.90134"
   cy="116.107"
   rx="2.90134"
   ry="2.9319999"
   class="st2"
   id="ellipse28"
   style="fill:#ffffff;stroke:none;stroke-width:34;stroke-linecap:butt" />
				</g>
				<g
   id="shape14121-9"
   transform="translate(38.7846,-26.4554)">
					<title
   id="title31">Sheet.14121</title>
					<ellipse
   cx="2.90134"
   cy="116.107"
   rx="2.90134"
   ry="2.9319999"
   class="st2"
   id="ellipse33"
   style="fill:#ffffff;stroke:none;stroke-width:34;stroke-linecap:butt" />
				</g>
				<g
   id="shape14122-11"
   transform="translate(35.7832,-12.2335)">
					<title
   id="title36">Sheet.14122</title>
					<ellipse
   cx="2.90134"
   cy="116.107"
   rx="2.90134"
   ry="2.9319999"
   class="st2"
   id="ellipse38"
   style="fill:#ffffff;stroke:none;stroke-width:34;stroke-linecap:butt" />
				</g>
				<g
   id="shape14123-13"
   transform="translate(31.0477,-32.9598)">
					<title
   id="title41">Sheet.14123</title>
					<ellipse
   cx="3.5016201"
   cy="115.501"
   rx="3.5016201"
   ry="3.53863"
   class="st3"
   id="ellipse43"
   style="fill:#50e6ff;stroke:none;stroke-width:34;stroke-linecap:butt" />
				</g>
				<g
   id="shape14124-15"
   transform="translate(38.0843,-25.8488)">
					<title
   id="title46">Sheet.14124</title>
					<ellipse
   cx="3.5016201"
   cy="115.501"
   rx="3.5016201"
   ry="3.53863"
   class="st4"
   id="ellipse48"
   style="fill:url(#linearGradient4641);stroke:none;stroke-width:34;stroke-linecap:butt" />
				</g>
				<g
   id="shape14125-19"
   transform="translate(35.183,-11.6269)">
					<title
   id="title51">Sheet.14125</title>
					<ellipse
   cx="3.5016201"
   cy="115.501"
   rx="3.5016201"
   ry="3.53863"
   class="st4"
   id="ellipse53"
   style="fill:url(#linearGradient4643);stroke:none;stroke-width:34;stroke-linecap:butt" />
				</g>
				<g
   id="shape14126-22"
   transform="translate(28.113,-18.7379)">
					<title
   id="title56">Sheet.14126</title>
					<ellipse
   cx="3.5016201"
   cy="115.501"
   rx="3.5016201"
   ry="3.53863"
   class="st3"
   id="ellipse58"
   style="fill:#50e6ff;stroke:none;stroke-width:34;stroke-linecap:butt" />
				</g>
				<g
   id="group14127-24"
   transform="translate(0,-38.015)">
					<title
   id="title61">Sheet.14127</title>
					<g
   id="shape14128-25">
						<title
   id="title63">Sheet.14128</title>
						<path
   d="m 1.9,106.03 h 4.3 v 12.03 a 0.967114,0.977335 0 0 1 -0.967114,0.97733 L 0.97,119.04 A 0.967114,0.977335 0 0 1 0.002886,118.06267 L 0,107.95 a 1.90088,1.92097 0 0 1 1.9,-1.92 z"
   class="st5"
   id="path65"
   inkscape:connector-curvature="0"
   style="fill:#999999;stroke:none;stroke-width:34;stroke-linecap:butt" />
					</g>
					<g
   id="shape14129-27">
						<title
   id="title68">Sheet.14129</title>
						<path
   d="m 1.9,106.03 h 4.3 v 12.03 a 0.967114,0.977335 0 0 1 -0.967114,0.97733 L 0.97,119.04 A 0.967114,0.977335 0 0 1 0.002886,118.06267 L 0,107.95 a 1.90088,1.92097 0 0 1 1.9,-1.92 z"
   class="st6"
   id="path70"
   inkscape:connector-curvature="0"
   style="fill:#999999;fill-opacity:0.5;stroke:none;stroke-width:34;stroke-linecap:butt" />
					</g>
				</g>
				<g
   id="group14130-29"
   transform="translate(50.49,-38.015)">
					<title
   id="title74">Sheet.14130</title>
					<g
   id="shape14131-30">
						<title
   id="title76">Sheet.14131</title>
						<path
   d="m 0,106.03 h 4.3 a 1.90088,1.92097 0 0 1 1.9,1.92 v 10.11 a 0.967114,0.977335 0 0 1 -0.967114,0.97733 L 0.93,119.04 a 0.967114,0.977335 0 0 1 -0.933766,-0.97733 z"
   class="st5"
   id="path78"
   inkscape:connector-curvature="0"
   style="fill:#999999;stroke:none;stroke-width:34;stroke-linecap:butt" />
					</g>
					<g
   id="shape14132-32">
						<title
   id="title81">Sheet.14132</title>
						<path
   d="m 0,106.03 h 4.3 a 1.90088,1.92097 0 0 1 1.9,1.92 v 10.11 a 0.967114,0.977335 0 0 1 -0.967114,0.97733 L 0.93,119.04 a 0.967114,0.977335 0 0 1 -0.933766,-0.97733 z"
   class="st6"
   id="path83"
   inkscape:connector-curvature="0"
   style="fill:#999999;fill-opacity:0.5;stroke:none;stroke-width:34;stroke-linecap:butt" />
					</g>
				</g>
				<g
   id="shape14133-34"
   transform="translate(0,-44.89)">
					<title
   id="title87">Sheet.14133</title>
					<path
   d="m 56.69,114.83 v 4.21 H 0 v -4.21 a 1.90088,1.92097 0 0 1 1.9,-1.92 h 52.93 a 1.90088,1.92097 0 0 1 1.86,1.92 z"
   class="st7"
   id="path89"
   inkscape:connector-curvature="0"
   style="fill:#949494;stroke:none;stroke-width:34;stroke-linecap:butt" />
				</g>
				<g
   id="group14134-36">
					<title
   id="title92">Sheet.14134</title>
					<g
   id="shape14135-37">
						<title
   id="title94">Sheet.14135</title>
						<path
   d="m 0.97,105.93 h 4.3 a 0.967114,0.977335 0 0 1 0.967114,0.97734 L 6.24,119.04 H 1.9 A 1.90088,1.92097 0 0 1 0,117.12 v -10.11 a 0.967114,0.977335 0 0 1 0.967114,-1.07844 z"
   class="st5"
   id="path96"
   inkscape:connector-curvature="0"
   style="fill:#999999;stroke:none;stroke-width:34;stroke-linecap:butt" />
					</g>
					<g
   id="shape14136-39">
						<title
   id="title99">Sheet.14136</title>
						<path
   d="m 0.97,105.93 h 4.3 a 0.967114,0.977335 0 0 1 0.967114,0.97734 L 6.24,119.04 H 1.9 A 1.90088,1.92097 0 0 1 0,117.12 v -10.11 a 0.967114,0.977335 0 0 1 0.967114,-1.07844 z"
   class="st6"
   id="path101"
   inkscape:connector-curvature="0"
   style="fill:#999999;fill-opacity:0.5;stroke:none;stroke-width:34;stroke-linecap:butt" />
					</g>
				</g>
				<g
   id="group14137-41"
   transform="translate(50.49,-0.101104)">
					<title
   id="title105">Sheet.14137</title>
					<g
   id="shape14138-42">
						<title
   id="title107">Sheet.14138</title>
						<path
   d="m 0.93,106.03 h 4.31 a 0.967114,0.977335 0 0 1 0.967114,0.97733 L 6.2,117.12 a 1.90088,1.92097 0 0 1 -1.9,1.92 H 0 v -11.93 a 0.967114,0.977335 0 0 1 0.933766,-1.07844 z"
   class="st5"
   id="path109"
   inkscape:connector-curvature="0"
   style="fill:#999999;stroke:none;stroke-width:34;stroke-linecap:butt" />
					</g>
					<g
   id="shape14139-44">
						<title
   id="title112">Sheet.14139</title>
						<path
   d="m 0.93,106.03 h 4.31 a 0.967114,0.977335 0 0 1 0.967114,0.97733 L 6.2,117.12 a 1.90088,1.92097 0 0 1 -1.9,1.92 H 0 v -11.93 a 0.967114,0.977335 0 0 1 0.933766,-1.07844 z"
   class="st6"
   id="path114"
   inkscape:connector-curvature="0"
   style="fill:#999999;fill-opacity:0.5;stroke:none;stroke-width:34;stroke-linecap:butt" />
					</g>
				</g>
				<g
   id="shape14140-46">
					<title
   id="title118">Sheet.14140</title>
					<path
   d="m 0,117.12 v -4.21 h 56.69 v 4.21 a 1.90088,1.92097 0 0 1 -1.9,1.92 H 1.9 A 1.90088,1.92097 0 0 1 0,117.12 Z"
   class="st7"
   id="path120"
   inkscape:connector-curvature="0"
   style="fill:#949494;stroke:none;stroke-width:34;stroke-linecap:butt" />
				</g>
			</g>
		</g>
	</g>
</svg>

<?xml version="1.0" encoding="UTF-8" standalone="no"?>
<!DOCTYPE svg PUBLIC "-//W3C//DTD SVG 1.1//EN" "http://www.w3.org/Graphics/SVG/1.1/DTD/svg11.dtd">
<!-- Generated by Microsoft Visio, SVG Export Event Grid Subscription.svg Page-1 -->
<svg xmlns="http://www.w3.org/2000/svg" xmlns:xlink="http://www.w3.org/1999/xlink" xmlns:ev="http://www.w3.org/2001/xml-events"
		width="1.73192in" height="1.65332in" viewBox="0 0 124.698 119.039" xml:space="preserve" color-interpolation-filters="sRGB"
		class="st8">
	<style type="text/css">
	<![CDATA[
		.st1 {fill:#32bedd;stroke:none;stroke-linecap:butt;stroke-width:34}
		.st2 {fill:#ffffff;stroke:none;stroke-linecap:butt;stroke-width:34}
		.st3 {fill:#50e6ff;stroke:none;stroke-linecap:butt;stroke-width:34}
		.st4 {fill:url(#grad0-18);stroke:none;stroke-linecap:butt;stroke-width:34}
		.st5 {fill:#999999;stroke:none;stroke-linecap:butt;stroke-width:34}
		.st6 {fill:#999999;fill-opacity:0.5;stroke:none;stroke-linecap:butt;stroke-width:34}
		.st7 {fill:#949494;stroke:none;stroke-linecap:butt;stroke-width:34}
		.st8 {fill:none;fill-rule:evenodd;font-size:12px;overflow:visible;stroke-linecap:square;stroke-miterlimit:3}
	]]>
	</style>

	<defs id="Patterns_And_Gradients">
		<linearGradient id="grad0-18" x1="0" y1="0" x2="1" y2="0" gradientTransform="rotate(90 0.5 0.5)">
			<stop offset="0" stop-color="#c69aeb" stop-opacity="1"/>
			<stop offset="1" stop-color="#6f4bb2" stop-opacity="1"/>
		</linearGradient>
	</defs>
	<g>
		<title>Page-1</title>
		<g id="group13769-1" transform="translate(34.0052,-34.0157)">
			<title>Event Grid Subscription.13769</title>
			<g id="group13770-2">
				<title>Icon-integration-221</title>
				<g id="shape13771-3" transform="translate(8.50394,-14.1545)">
					<title>Sheet.13771</title>
					<path d="M32.18 104.82 L32.18 102.8 L17.11 102.8 L10.04 109.91 L4.84 109.91 L16.91 97.57 L25.14 97.57 L25.14
								 95.65 L16.07 95.65 L2 109.91 L0 109.91 L0 111.93 L6.04 111.93 L13.17 119.04 L30.18 119.04 L30.18
								 117.02 L13.91 117.02 L8.87 111.93 L21.11 111.93 L21.11 109.91 L12.91 109.91 L17.91 104.82 L32.18
								 104.82 Z" class="st1"/>
				</g>
				<g id="shape13772-5" transform="translate(28.7133,-19.3445)">
					<title>Sheet.13772</title>
					<ellipse cx="2.90134" cy="116.107" rx="2.90134" ry="2.932" class="st2"/>
				</g>
				<g id="shape13773-7" transform="translate(31.748,-33.5664)">
					<title>Sheet.13773</title>
					<ellipse cx="2.90134" cy="116.107" rx="2.90134" ry="2.932" class="st2"/>
				</g>
				<g id="shape13774-9" transform="translate(38.7846,-26.4554)">
					<title>Sheet.13774</title>
					<ellipse cx="2.90134" cy="116.107" rx="2.90134" ry="2.932" class="st2"/>
				</g>
				<g id="shape13775-11" transform="translate(35.7832,-12.2335)">
					<title>Sheet.13775</title>
					<ellipse cx="2.90134" cy="116.107" rx="2.90134" ry="2.932" class="st2"/>
				</g>
				<g id="shape13776-13" transform="translate(31.0477,-32.9598)">
					<title>Sheet.13776</title>
					<ellipse cx="3.50162" cy="115.501" rx="3.50162" ry="3.53863" class="st3"/>
				</g>
				<g id="shape13777-15" transform="translate(38.0843,-25.8488)">
					<title>Sheet.13777</title>
					<ellipse cx="3.50162" cy="115.501" rx="3.50162" ry="3.53863" class="st4"/>
				</g>
				<g id="shape13778-19" transform="translate(35.183,-11.6269)">
					<title>Sheet.13778</title>
					<ellipse cx="3.50162" cy="115.501" rx="3.50162" ry="3.53863" class="st4"/>
				</g>
				<g id="shape13779-22" transform="translate(28.113,-18.7379)">
					<title>Sheet.13779</title>
					<ellipse cx="3.50162" cy="115.501" rx="3.50162" ry="3.53863" class="st3"/>
				</g>
				<g id="group13780-24" transform="translate(5.64548E-14,-38.015)">
					<title>Sheet.13780</title>
					<g id="shape13781-25">
						<title>Sheet.13781</title>
						<path d="M1.9 106.03 L6.2 106.03 L6.2 118.06 a0.967114 0.977335 0 0 1 -0.967114 0.977335 L0.97 119.04 a0.967114
									 0.977335 0 0 1 -0.967114 -0.977335 L0 107.95 A1.90088 1.92097 0 0 1 1.9 106.03 Z" class="st5"/>
					</g>
					<g id="shape13782-27">
						<title>Sheet.13782</title>
						<path d="M1.9 106.03 L6.2 106.03 L6.2 118.06 a0.967114 0.977335 0 0 1 -0.967114 0.977335 L0.97 119.04 a0.967114
									 0.977335 0 0 1 -0.967114 -0.977335 L0 107.95 A1.90088 1.92097 0 0 1 1.9 106.03 Z" class="st6"/>
					</g>
				</g>
				<g id="group13783-29" transform="translate(50.49,-38.015)">
					<title>Sheet.13783</title>
					<g id="shape13784-30">
						<title>Sheet.13784</title>
						<path d="M0 106.03 L4.3 106.03 A1.90088 1.92097 0 0 1 6.2 107.95 L6.2 118.06 a0.967114 0.977335 0 0 1 -0.967114
									 0.977335 L0.93 119.04 a0.967114 0.977335 0 0 1 -0.933766 -0.977335 L0 106.03 Z" class="st5"/>
					</g>
					<g id="shape13785-32">
						<title>Sheet.13785</title>
						<path d="M0 106.03 L4.3 106.03 A1.90088 1.92097 0 0 1 6.2 107.95 L6.2 118.06 a0.967114 0.977335 0 0 1 -0.967114
									 0.977335 L0.93 119.04 a0.967114 0.977335 0 0 1 -0.933766 -0.977335 L0 106.03 Z" class="st6"/>
					</g>
				</g>
				<g id="shape13786-34" transform="translate(0,-44.89)">
					<title>Sheet.13786</title>
					<path d="M56.69 114.83 L56.69 119.04 L0 119.04 L0 114.83 A1.90088 1.92097 0 0 1 1.9 112.91 L54.83 112.91 A1.90088
								 1.92097 0 0 1 56.69 114.83 Z" class="st7"/>
				</g>
				<g id="group13787-36">
					<title>Sheet.13787</title>
					<g id="shape13788-37">
						<title>Sheet.13788</title>
						<path d="M0.97 105.93 L5.27 105.93 a0.967114 0.977335 0 0 1 0.967114 0.977335 L6.24 119.04 L1.9 119.04 A1.90088
									 1.92097 0 0 1 0 117.12 L0 107.01 a0.967114 0.977335 0 0 1 0.967114 -1.07844 Z" class="st5"/>
					</g>
					<g id="shape13789-39">
						<title>Sheet.13789</title>
						<path d="M0.97 105.93 L5.27 105.93 a0.967114 0.977335 0 0 1 0.967114 0.977335 L6.24 119.04 L1.9 119.04 A1.90088
									 1.92097 0 0 1 0 117.12 L0 107.01 a0.967114 0.977335 0 0 1 0.967114 -1.07844 Z" class="st6"/>
					</g>
				</g>
				<g id="group13790-41" transform="translate(50.49,-0.101104)">
					<title>Sheet.13790</title>
					<g id="shape13791-42">
						<title>Sheet.13791</title>
						<path d="M0.93 106.03 L5.24 106.03 a0.967114 0.977335 0 0 1 0.967114 0.977335 L6.2 117.12 A1.90088 1.92097
									 0 0 1 4.3 119.04 L0 119.04 L0 107.11 a0.967114 0.977335 0 0 1 0.933766 -1.07844 Z" class="st5"/>
					</g>
					<g id="shape13792-44">
						<title>Sheet.13792</title>
						<path d="M0.93 106.03 L5.24 106.03 a0.967114 0.977335 0 0 1 0.967114 0.977335 L6.2 117.12 A1.90088 1.92097
									 0 0 1 4.3 119.04 L0 119.04 L0 107.11 a0.967114 0.977335 0 0 1 0.933766 -1.07844 Z" class="st6"/>
					</g>
				</g>
				<g id="shape13793-46">
					<title>Sheet.13793</title>
					<path d="M0 117.12 L0 112.91 L56.69 112.91 L56.69 117.12 A1.90088 1.92097 0 0 1 54.79 119.04 L1.9 119.04 A1.90088
								 1.92097 0 0 1 0 117.12 Z" class="st7"/>
				</g>
			</g>
		</g>
	</g>
</svg>
